X:1
T: Deveron Reel
C:
R:Reel
Q: 232
K:D
M:4/4
L:1/8
|:A2|D2 D2 FE DF|A2 A2 BA FA|d2 d2 fe de|f2 e2 e2 f2|
D2 D2 FE DF|A2 A2 BA FA|d2 f2 ef ga|f2 d2 d2 A2|
f2 f2 de fd|e2 A2 A2 A2|B2 B2 GA BG|A2 D2 D2 D2|
G2 G2 EF GE|F2 A2 d2 A2|BA GF E2 AG|F2 D2 D2:|
